Numix-Circle/48x48/apps/aim.svg

<svg width="48" xmlns="http://www.w3.org/2000/svg" height="48" viewBox="0 0 48 48" xmlns:xlink="http://www.w3.org/1999/xlink">
<g style="fill:#fc0">
<path d="M 19.980469 17.90625 C 20.703125 18.246094 24.34375 17.535156 24.71875 17.855469 C 25.09375 18.179688 23.800781 19.40625 24.527344 19.945312 C 26.253906 21.230469 30.816406 21.609375 34.914062 20.097656 L 36.464844 24.363281 C 34.214844 25.605469 30.84375 26.324219 26.53125 25.914062 L 37.859375 37.320312 L 33.664062 41.097656 L 24.949219 31.945312 C 21.421875 38.121094 16.8125 40.539062 13.1875 42.75 L 10.140625 37.945312 C 24.523438 28.863281 16.550781 24.796875 20.039062 19.609375 C 20.316406 19.195312 19.507812 18.304688 19.980469 17.90625 Z "/>
<path d="M 29.652344 12.113281 C 29.652344 15.902344 26.582031 18.976562 22.792969 18.976562 C 19 18.976562 15.929688 15.902344 15.929688 12.113281 C 15.929688 8.324219 19 5.25 22.792969 5.25 C 26.582031 5.25 29.652344 8.324219 29.652344 12.113281 Z "/>
</g>
</svg>

<svg xmlns="http://www.w3.org/2000/svg" viewBox="0 0 48 48">
 <g style="fill:#fc0">
  <path d="m 19.98 17.906 c 0.723 0.34 4.363 -0.371 4.738 -0.051 c 0.375 0.324 -0.918 1.551 -0.191 2.09 c 1.727 1.285 6.289 1.664 10.387 0.152 l 1.551 4.266 c -2.25 1.242 -5.621 1.961 -9.934 1.551 l 11.328 11.406 l -4.195 3.777 l -8.715 -9.152 c -3.527 6.176 -8.137 8.594 -11.762 10.805 l -3.047 -4.805 c 14.383 -9.08 6.41 -13.148 9.898 -18.336 c 0.277 -0.414 -0.531 -1.305 -0.059 -1.703 Z"/>
  <path d="m 29.652 12.11 c 0 3.789 -3.07 6.863 -6.859 6.863 c -3.793 0 -6.863 -3.074 -6.863 -6.863 c 0 -3.789 3.07 -6.863 6.863 -6.863 c 3.789 0 6.859 3.074 6.859 6.863 Z"/>
 </g>
</svg>
